X:2627
T:Polka fra Saltdal
T:(Polka from Saltdal)
C:anon.
O:Norway
A:Saltdal
R:Polka
Z:Transcribed by Frank Nordberg - http://www.musicaviva.com
F:http://abc.musicaviva.com/tunes/norway/polka-saltdal/polka-saltdal-1.abc
M:2/4
L:1/8
Q:1/4=176
K:D
"D"Af/2f/2 fg|"D"f2 f2|"D"Af/2f/2 fg|"D"f2 f2|
"A7"ef ga|"A7"ge cB|"D"Aa ^g/2a/2^g/2a/2|"D"fd/2d/2 dd|
"D"Af/2f/2 fg|"D"f2 f2|"D"Af/2f/2 fg|"D"f2 f2|
"A7"ef ga|"A7"ge Bc|"D"dd/2d/2 dd|[1"D"d4:|\
K:G
"D"[2dB =c^c|
|:"G"dB GB|"G"dB GB|"G"ed cB|"D7"A2 AB|
"D7"c/2A/2F/2A/2 c/2A/2F/2A/2|"D7"c/2A/2F/2A/2 c/2A/2F/2A/2|"D7"ed dc|"G"BB c^c|
"G"dB GB|"G"dB GB|"G"ed cB|"D7"A2 g2|
"D7"ff/2f/2 fe|"D7"dd ef|"G"g/2a/2g/2f/2 g/2a/2g/2f/2|[1"G"gB c^c:|[2"G"g4|]
W:
W:
W:  From Musica Viva - http://www.musicaviva.com
W:  the Internet center for free sheet music downloads.
